svg/aws-ec2-m6a.svg

<?xml version="1.0" encoding="UTF-8"?>
<svg xmlns="http://www.w3.org/2000/svg" xmlns:xlink="http://www.w3.org/1999/xlink" width="32" height="32" viewBox="0 0 32 32">
<path fill-rule="evenodd" fill="rgb(83.137255%, 35.686275%, 2.745098%)" fill-opacity="1" d="M 22.203125 18.644531 C 22.378906 18.644531 22.5625 18.605469 22.757812 18.527344 C 22.953125 18.449219 23.140625 18.339844 23.320312 18.195312 L 23.320312 17.300781 C 23.042969 17.234375 22.753906 17.199219 22.46875 17.195312 C 21.835938 17.195312 21.519531 17.449219 21.519531 17.953125 C 21.519531 18.171875 21.582031 18.339844 21.703125 18.460938 C 21.824219 18.582031 21.992188 18.644531 22.203125 18.644531 M 23.460938 19.289062 L 23.378906 18.832031 C 23.164062 19.015625 22.917969 19.164062 22.65625 19.269531 C 22.40625 19.371094 22.136719 19.425781 21.867188 19.429688 C 21.429688 19.429688 21.078125 19.296875 20.804688 19.035156 C 20.535156 18.773438 20.402344 18.433594 20.402344 18.019531 C 20.402344 17.558594 20.566406 17.191406 20.898438 16.917969 C 21.234375 16.644531 21.679688 16.507812 22.238281 16.507812 C 22.570312 16.507812 22.929688 16.554688 23.320312 16.648438 L 23.320312 16.097656 C 23.320312 15.777344 23.253906 15.558594 23.117188 15.433594 C 22.980469 15.308594 22.742188 15.246094 22.398438 15.246094 C 21.914062 15.246094 21.355469 15.347656 20.726562 15.554688 L 20.726562 14.78125 C 20.960938 14.660156 21.25 14.570312 21.585938 14.5 C 21.925781 14.429688 22.265625 14.398438 22.609375 14.398438 C 23.230469 14.398438 23.6875 14.519531 23.980469 14.769531 C 24.277344 15.019531 24.421875 15.40625 24.421875 15.9375 L 24.421875 19.289062 Z M 17.542969 16.226562 C 17.140625 16.226562 16.734375 16.335938 16.320312 16.554688 C 16.363281 17.878906 16.796875 18.542969 17.617188 18.542969 C 17.949219 18.542969 18.210938 18.4375 18.402344 18.234375 C 18.589844 18.027344 18.683594 17.742188 18.683594 17.375 C 18.683594 17 18.585938 16.714844 18.390625 16.519531 C 18.195312 16.324219 17.914062 16.226562 17.542969 16.226562 M 18.035156 13.558594 C 17.476562 13.558594 17.058594 13.742188 16.78125 14.117188 C 16.507812 14.492188 16.351562 15.066406 16.320312 15.84375 C 16.789062 15.539062 17.332031 15.371094 17.890625 15.367188 C 18.46875 15.367188 18.933594 15.542969 19.285156 15.894531 C 19.636719 16.246094 19.8125 16.714844 19.8125 17.300781 C 19.8125 17.710938 19.71875 18.074219 19.539062 18.398438 C 19.355469 18.71875 19.089844 18.96875 18.742188 19.152344 C 18.398438 19.335938 17.996094 19.429688 17.535156 19.429688 C 16.765625 19.429688 16.179688 19.164062 15.785156 18.632812 C 15.390625 18.105469 15.191406 17.324219 15.191406 16.292969 C 15.191406 15.148438 15.425781 14.257812 15.898438 13.621094 C 16.367188 12.988281 17.027344 12.671875 17.878906 12.671875 C 18.148438 12.671875 18.417969 12.699219 18.6875 12.757812 C 18.957031 12.820312 19.191406 12.898438 19.382812 12.996094 L 19.382812 13.808594 C 18.949219 13.652344 18.496094 13.570312 18.035156 13.558594 M 13.140625 19.289062 L 13.140625 14.445312 L 11.460938 17.664062 L 10.433594 17.664062 L 8.808594 14.460938 L 8.808594 19.289062 L 7.761719 19.289062 L 7.761719 12.820312 L 9.03125 12.820312 L 10.972656 16.675781 L 12.953125 12.820312 L 14.183594 12.820312 L 14.183594 19.289062 Z M 6 26 L 26 26 L 26 6 L 6 6 Z M 30.667969 8.667969 L 30.667969 7.332031 L 27.332031 7.332031 L 27.332031 5.332031 C 27.332031 4.964844 27.035156 4.667969 26.667969 4.667969 L 24.667969 4.667969 L 24.667969 1.332031 L 23.332031 1.332031 L 23.332031 4.667969 L 20.667969 4.667969 L 20.667969 1.332031 L 19.332031 1.332031 L 19.332031 4.667969 L 16.667969 4.667969 L 16.667969 1.332031 L 15.332031 1.332031 L 15.332031 4.667969 L 12.667969 4.667969 L 12.667969 1.332031 L 11.332031 1.332031 L 11.332031 4.667969 L 8.667969 4.667969 L 8.667969 1.332031 L 7.332031 1.332031 L 7.332031 4.667969 L 5.332031 4.667969 C 4.964844 4.667969 4.667969 4.964844 4.667969 5.332031 L 4.667969 7.332031 L 1.332031 7.332031 L 1.332031 8.667969 L 4.667969 8.667969 L 4.667969 11.332031 L 1.332031 11.332031 L 1.332031 12.667969 L 4.667969 12.667969 L 4.667969 15.332031 L 1.332031 15.332031 L 1.332031 16.667969 L 4.667969 16.667969 L 4.667969 19.332031 L 1.332031 19.332031 L 1.332031 20.667969 L 4.667969 20.667969 L 4.667969 23.332031 L 1.332031 23.332031 L 1.332031 24.667969 L 4.667969 24.667969 L 4.667969 26.667969 C 4.667969 27.035156 4.964844 27.332031 5.332031 27.332031 L 7.332031 27.332031 L 7.332031 30.667969 L 8.667969 30.667969 L 8.667969 27.332031 L 11.332031 27.332031 L 11.332031 30.667969 L 12.667969 30.667969 L 12.667969 27.332031 L 15.332031 27.332031 L 15.332031 30.667969 L 16.667969 30.667969 L 16.667969 27.332031 L 19.332031 27.332031 L 19.332031 30.667969 L 20.667969 30.667969 L 20.667969 27.332031 L 23.332031 27.332031 L 23.332031 30.667969 L 24.667969 30.667969 L 24.667969 27.332031 L 26.667969 27.332031 C 27.035156 27.332031 27.332031 27.035156 27.332031 26.667969 L 27.332031 24.667969 L 30.667969 24.667969 L 30.667969 23.332031 L 27.332031 23.332031 L 27.332031 20.667969 L 30.667969 20.667969 L 30.667969 19.332031 L 27.332031 19.332031 L 27.332031 16.667969 L 30.667969 16.667969 L 30.667969 15.332031 L 27.332031 15.332031 L 27.332031 12.667969 L 30.667969 12.667969 L 30.667969 11.332031 L 27.332031 11.332031 L 27.332031 8.667969 Z M 30.667969 8.667969 "/>
</svg>

<svg role="img" viewBox="0 0 32 32" height="32" width="32" xmlns="http://www.w3.org/2000/svg"><path d="M22.203 18.645c.176 0 .36-.04.555-.118.195-.078.383-.187.562-.332v-.894a3.938 3.938 0 0 0-.851-.106c-.633 0-.95.254-.95.758 0 .219.063.387.184.508s.29.184.5.184m1.258.644-.082-.457a2.693 2.693 0 0 1-.723.438 2.13 2.13 0 0 1-.789.16c-.437 0-.789-.133-1.062-.395-.27-.262-.403-.601-.403-1.015 0-.461.164-.829.496-1.102.336-.273.782-.41 1.34-.41.332 0 .692.047 1.082.14v-.55c0-.32-.066-.54-.203-.664-.137-.125-.375-.188-.719-.188-.484 0-1.043.102-1.671.309v-.774c.234-.12.523-.21.859-.281.34-.07.68-.102 1.023-.102.621 0 1.078.122 1.371.372.297.25.442.636.442 1.168v3.351Zm-5.918-3.062c-.402 0-.809.109-1.223.328.043 1.324.477 1.988 1.297 1.988.332 0 .594-.105.785-.309.188-.207.282-.492.282-.859 0-.375-.098-.66-.293-.855-.196-.196-.477-.293-.848-.293m.492-2.668c-.558 0-.976.183-1.254.558-.273.375-.43.95-.46 1.727a2.918 2.918 0 0 1 1.57-.477c.578 0 1.043.176 1.394.528.352.351.527.82.527 1.406 0 .41-.093.773-.273 1.097-.184.32-.45.57-.797.754-.344.184-.746.278-1.207.278-.77 0-1.355-.266-1.75-.797-.394-.528-.594-1.309-.594-2.34 0-1.145.235-2.035.707-2.672.47-.633 1.13-.95 1.98-.95.27 0 .54.028.81.087.269.062.503.14.695.238v.813a4.224 4.224 0 0 0-1.348-.25m-4.894 5.73v-4.844l-1.68 3.22h-1.027L8.809 14.46v4.828H7.762V12.82h1.27l1.94 3.856 1.981-3.856h1.23v6.47ZM6 26h20V6H6ZM30.668 8.668V7.332h-3.336v-2a.664.664 0 0 0-.664-.664h-2V1.332h-1.336v3.336h-2.664V1.332h-1.336v3.336h-2.664V1.332h-1.336v3.336h-2.664V1.332h-1.336v3.336H8.668V1.332H7.332v3.336h-2a.664.664 0 0 0-.664.664v2H1.332v1.336h3.336v2.664H1.332v1.336h3.336v2.664H1.332v1.336h3.336v2.664H1.332v1.336h3.336v2.664H1.332v1.336h3.336v2c0 .367.297.664.664.664h2v3.336h1.336v-3.336h2.664v3.336h1.336v-3.336h2.664v3.336h1.336v-3.336h2.664v3.336h1.336v-3.336h2.664v3.336h1.336v-3.336h2a.664.664 0 0 0 .664-.664v-2h3.336v-1.336h-3.336v-2.664h3.336v-1.336h-3.336v-2.664h3.336v-1.336h-3.336v-2.664h3.336v-1.336h-3.336V8.668Zm0 0" fill="rgb(83.137255%, 35.686275%, 2.745098%)" fill-rule="evenodd"/></svg>
